X:1
T:Partita II Capriccio
T:BWV 826
T:J. S. Bach
%%score { ( 1 4 ) | ( 2 3 ) }
L:1/8
M:2/4
K:Eb
V:1 treble nm="Harp"
V:4 treble 
V:2 bass 
V:3 bass 
V:1
 z G c2- | cd/c/ =B/=A/G/F/ | Eg Df | e/d/c/d/ =e/^f/g/=a/ | b/g/^f/g/ d/g/f/g/ | %5
 c'/g/^f/g/ =a/g/f/=e/ | d g2 ^f | g z z2 | z/ c/^F/G/ =A/B/c- | c/B/=A/B/ c/d/=e/^f/ | %10
 g^f/g/- g2- | g=e/g/- g2- | g=e/f/- f2- | fd/f/- f2- | f/e/d/f/ e/d/c/=B/ | c/=B/c/d/ e/f/g- | %16
 g/f/e/g/ f/e/d/c/ | =B/=A/B/c/ d/e/f- | f/a/g/f/ e/d/c/B/ | A/c/f/e/ d/c/=B/d/ | %20
 g/f/e/g/ f/e/d/f/ | e2 z2 | e/c/=a/e/ c'/e/d/c/ | d/B/=A/B/ F/B/A/B/ | d/B/g/d/ b/d/c/B/ | %25
 c/=A/G/A/ ^F/A/G/A/ | c/=A/^f/c/ =a/c/B/A/ | Bd g2- | g=a/g/ ^f/=e/d/c/ | Bd' =Ac' | Gb/=a/ gb | %31
 =eg Be | Fa/g/ fa | df Ad | E2 z c | A2 z2 | z G c2- | cd/c/ =B/=A/G/F/ | Eg Df- | %39
 f/e/d/f/ e/d/c/B/ | A/G/A/B/ c/d/e- | e/d/c/e/ d/c/B/A/ | G/F/G/A/ B/c/_d- | d/c/B/_d/ c/B/A/G/ | %44
 A4- | AG G2- | GA/G/ F/E/D/C/ | G4 | z G c2- | cd/c/ =B/=A/G/F/ | Eg Df | e/d/c/d/ =e/^f/g/=a/ | %52
 b/g/^f/g/ d/g/f/g/ | c'/g/^f/g/ =a/g/f/=e/ | d g2 ^f | g z z2 | z/ c/^F/G/ =A/B/c- | %57
 c/B/=A/B/ c/d/=e/^f/ | g^f/g/- g2- | g=e/g/- g2- | g=e/f/- f2- | fd/f/- f2- | f/e/d/f/ e/d/c/=B/ | %63
 c/=B/c/d/ e/f/g- | g/f/e/g/ f/e/d/c/ | =B/=A/B/c/ d/e/f- | f/a/g/f/ e/d/c/B/ | %67
 A/c/f/e/ d/c/=B/d/ | g/f/e/g/ f/e/d/f/ | e2 z2 | e/c/=a/e/ c'/e/d/c/ | d/B/=A/B/ F/B/A/B/ | %72
 d/B/g/d/ b/d/c/B/ | c/=A/G/A/ ^F/A/G/A/ | c/=A/^f/c/ =a/c/B/A/ | Bd g2- | g=a/g/ ^f/=e/d/c/ | %77
 Bd' =Ac' | Gb/=a/ gb | =eg Be | Fa/g/ fa | df Ad | E2 z c | A2 z2 | z G c2- | cd/c/ =B/=A/G/F/ | %86
 Eg Df- | f/e/d/f/ e/d/c/B/ | A/G/A/B/ c/d/e- | e/d/c/e/ d/c/B/A/ | G/F/G/A/ B/c/_d- | %91
 d/c/B/_d/ c/B/A/G/ | A4- | AG G2- | GA/G/ F/E/D/C/ | G4 | z d G2- | GF/G/ =A/=B/c/d/ | eC fD | %99
 g/a/g/f/ e/d/c/B/ | Af G=e | f/c'/=e/f/ z/ c'/e/f/- | f z z2 | z f/g/ a/b/c'/d/ | e z z2 | %105
 z e/f/ g/a/b/g/ | a z z2 | z/ g/f/e/ d/c/=B/=A/ | =B/c/d/e/ f2- | f/^d/=B/c/ z/ d/B/c/ | %110
 z/ d/=B/c/ z/ c/B/c/- | cg df- | fe/f/ g2- | gf ce- | ed/e/ f2- | fe/d/ c/B/=A/G/ | c4- | c3 c | %118
 B2 =A2 | z/ =a/^f/g/ z/ a/f/g/ | z g e2- | e d2 c- | c^d =dc | Bg =A^f | g2 z f | =B2 z2 | %126
 z g c2- | cB/c/ d/=e/f/g/ | a<c' a/c'/b/c'/ | a<c' a/b/a/b/ | g<b g/b/a/b/ | g<b g/a/g/a/ | %132
 f<a f/a/g/a/ | f<a f/g/f/g/ | e/g/d/g/ c/f/B/e/ | A/c/f/e/ f2 | z c g2- | ga/g/ f/e/d/c/ | %138
 =B2 z e | c2 z2 | z G f2- | fd g[Af] | [Ge]2 [Fd]2 | [EGc]4 | z d G2- | GF/G/ =A/=B/c/d/ | eC fD | %147
 g/a/g/f/ e/d/c/B/ | Af G=e | f/c'/=e/f/ z/ c'/e/f/- | f z z2 | z f/g/ a/b/c'/d/ | e z z2 | %153
 z e/f/ g/a/b/g/ | a z z2 | z/ g/f/e/ d/c/=B/=A/ | =B/c/d/e/ f2- | f/^d/=B/c/ z/ d/B/c/ | %158
 z/ d/=B/c/ z/ c/B/c/- | cg df- | fe/f/ g2- | gf ce- | ed/e/ f2- | fe/d/ c/B/=A/G/ | c4- | c3 c | %166
 B2 =A2 | z/ =a/^f/g/ z/ a/f/g/ | z g e2- | e d2 c- | c^d =dc | Bg =A^f | g2 z f | =B2 z2 | %174
 z g c2- | cB/c/ d/=e/f/g/ | a<c' a/c'/b/c'/ | a<c' a/b/a/b/ | g<b g/b/a/b/ | g<b g/a/g/a/ | %180
 f<a f/a/g/a/ | f<a f/g/f/g/ | e/g/d/g/ c/f/B/e/ | A/c/f/e/ f2 | z c g2- | ga/g/ f/e/d/c/ | %186
 =B2 z e | c2 z2 | z G f2- | fd g[Af] | [Ge]2 [Fd]2 | !fermata![EGc]4 |] %192
V:2
 E,2 z E, | F,2 z =B, | C3 =B, | C z z2 | G,2 z G, | =A,2 z2 | z B,, C,D, | G,,D, G,2- | %8
 G,=A,/G,/ ^F,/=E,/D,/C,/ | B,,D =A,,C | G,,B, F,,^G, | =E,,G, C,,=E, | F,,A, E,,G, | %13
 D,,F, B,,,D, | E,,E, F,G, | A, z z2 | z D, E,F, | G, z z2 | z G, C2- | CD/C/ =B,/=A,/G,/F,/ | %20
 E,G D,F | C,E/D/ CE | =A,C F,A, | B,,D/C/ B,D | G,B, E,G, | =A,,C/B,/ =A,C | ^F,=A, D,F, | %27
 z/ G,/^F,/G,/ D,/G,/F,/G,/ | C,/G,/^F,/G,/ =A,/G,/F,/=E,/ | D, G,2 ^F, | %30
 z/ G,/^F,/G,/ D,/G,/F,/G,/ | B,/G,/=E/B,/ G/B,/A,/G,/ | A,/F,/=E,/F,/ C,/F,/E,/F,/ | %33
 A,/F,/D/A,/ F/A,/G,/F,/ | z/ F,/E,/D,/ C,/B,,/A,,/G,,/ | F,,/E,/D,/C,/ B,,/A,,/G,,/F,,/ | %36
 E,,/D,/C,/B,,/ A,,/G,,/F,,/E,,/ | D,,/C,/B,,/A,,/ G,,/F,,/E,,/D,,/ | C,, C,2 =B,, | %39
 C,2 z/ C,/D,/E,/ | F, z z2 | B,,2 z/ B,,/C,/D,/ | E, z z2 | z A,, B,,C, | F,,C, F,2- | %45
 F,/E,/D,/F,/ E,/D,/C,/B,,/ | A,,G,, A,,/4G,,/4A,,3/2 | G,,4 | E,2 z E, | F,2 z =B, | C3 =B, | %51
 C z z2 | G,2 z G, | =A,2 z2 | z B,, C,D, | G,,D, G,2- | G,=A,/G,/ ^F,/=E,/D,/C,/ | B,,D =A,,C | %58
 G,,B, F,,^G, | =E,,G, C,,=E, | F,,A, E,,G, | D,,F, B,,,D, | E,,E, F,G, | A, z z2 | z D, E,F, | %65
 G, z z2 | z G, C2- | CD/C/ =B,/=A,/G,/F,/ | E,G D,F | C,E/D/ CE | =A,C F,A, | B,,D/C/ B,D | %72
 G,B, E,G, | =A,,C/B,/ =A,C | ^F,=A, D,F, | z/ G,/^F,/G,/ D,/G,/F,/G,/ | %76
 C,/G,/^F,/G,/ =A,/G,/F,/=E,/ | D, G,2 ^F, | z/ G,/^F,/G,/ D,/G,/F,/G,/ | %79
 B,/G,/=E/B,/ G/B,/A,/G,/ | A,/F,/=E,/F,/ C,/F,/E,/F,/ | A,/F,/D/A,/ F/A,/G,/F,/ | %82
 z/ F,/E,/D,/ C,/B,,/A,,/G,,/ | F,,/E,/D,/C,/ B,,/A,,/G,,/F,,/ | E,,/D,/C,/B,,/ A,,/G,,/F,,/E,,/ | %85
 D,,/C,/B,,/A,,/ G,,/F,,/E,,/D,,/ | C,, C,2 =B,, | C,2 z/ C,/D,/E,/ | F, z z2 | %89
 B,,2 z/ B,,/C,/D,/ | E, z z2 | z A,, B,,C, | F,,C, F,2- | F,/E,/D,/F,/ E,/D,/C,/B,,/ | %94
 A,,G,, A,,/4G,,/4A,,3/2 | G,,4 | G,2 z F, | E,2 D,2 | C, z D, z | E,2 z =E, | F,2 B,C | %101
[I:staff -1] A[I:staff +1]F,[I:staff -1] B[I:staff +1]G, |[I:staff -1] A[I:staff +1]F, G,A, | %103
 B, z z2 | z E, F,G, | A, z z2 | z D, E,F, | G,D, G,,2- | G,,F,,/G,,/ =A,,/=B,,/C,/D,/ | %109
 E,C,, F,D,, | G,E,, A,F,, | G,/G,,/G,/A,/ G,/F,/E,/D,/ | C,/G,/C/D/ C/B,/=A,/G,/ | %113
 F,/F,,/F,/G,/ F,/E,/D,/C,/ | B,,/F,/B,/C/ B,/A,/G,/F,/ | E,/E,,/E,/F,/ E,/D,/C,/B,,/ | %116
 =A,,/G,,/A,,/B,,/ C,/D,/E,/C,/ | D,/C,/D,/=E,/ ^F,/G,/=A,/F,/ | G,E, C,D, | G,, z E, z | %120
 B,,/G,/^F,/G,/ C,/=A,/F,/G,/ | D,/^A,/^F,/G,/ E,/C/F,/G,/ | ^F,,/E,/D,/C,/ B,,/=A,,/G,,/F,,/ | %123
 G,,/F,,/E,,/D,,/ C,,D,, | G,,/^F,,/G,,/=A,,/ =B,,/C,/D,/E,/ | F,/E,/D,/E,/ F,/G,/=A,/=B,/ | %126
 C z z C | =E, z2 C | F,A E,G | D,F B,,D | E,G D,F | C,E A,,C | D,F C,^D | =B,,D G,,=B, | %134
 C,G, C2- | CD/C/ =B,/=A,/G,/F,/ | E,/D,/C,/D,/ E,/F,/G,/E,/ | A,/G,/F,/G,/ A,2- | %138
 A,/A,/G,/F,/ E,/D,/C,/B,,/ | A,,/G,/F,/E,/ D,/C,/=B,,/=A,,/ | G,,/E,/D,/C,/ =B,,/=A,,/G,,/F,,/ | %141
 E,,/A,,/G,,/F,,/ E,,/D,,/E,,/F,,/ | G,,/C,/E,/^F,/ G,G,, | [C,,C,]4 | G,2 z F, | E,2 D,2 | %146
 C, z D, z | E,2 z =E, | F,2 B,C |[I:staff -1] A[I:staff +1]F,[I:staff -1] B[I:staff +1]G, | %150
[I:staff -1] A[I:staff +1]F, G,A, | B, z z2 | z E, F,G, | A, z z2 | z D, E,F, | G,D, G,,2- | %156
 G,,F,,/G,,/ =A,,/=B,,/C,/D,/ | E,C,, F,D,, | G,E,, A,F,, | G,/G,,/G,/A,/ G,/F,/E,/D,/ | %160
 C,/G,/C/D/ C/B,/=A,/G,/ | F,/F,,/F,/G,/ F,/E,/D,/C,/ | B,,/F,/B,/C/ B,/A,/G,/F,/ | %163
 E,/E,,/E,/F,/ E,/D,/C,/B,,/ | =A,,/G,,/A,,/B,,/ C,/D,/E,/C,/ | D,/C,/D,/=E,/ ^F,/G,/=A,/F,/ | %166
 G,E, C,D, | G,, z E, z | B,,/G,/^F,/G,/ C,/=A,/F,/G,/ | D,/^A,/^F,/G,/ E,/C/F,/G,/ | %170
 ^F,,/E,/D,/C,/ B,,/=A,,/G,,/F,,/ | G,,/F,,/E,,/D,,/ C,,D,, | G,,/^F,,/G,,/=A,,/ =B,,/C,/D,/E,/ | %173
 F,/E,/D,/E,/ F,/G,/=A,/=B,/ | C z z C | =E, z2 C | F,A E,G | D,F B,,D | E,G D,F | C,E A,,C | %180
 D,F C,^D | =B,,D G,,=B, | C,G, C2- | CD/C/ =B,/=A,/G,/F,/ | E,/D,/C,/D,/ E,/F,/G,/E,/ | %185
 A,/G,/F,/G,/ A,2- | A,/A,/G,/F,/ E,/D,/C,/B,,/ | A,,/G,/F,/E,/ D,/C,/=B,,/=A,,/ | %188
 G,,/E,/D,/C,/ =B,,/=A,,/G,,/F,,/ | E,,/A,,/G,,/F,,/ E,,/D,,/E,,/F,,/ | G,,/C,/E,/^F,/ G,G,, | %191
 !fermata![C,,C,]4 |] %192
V:3
 C, z z C, | D,2 z2 | z E, F,G, | C,C B,=A, | x4 | x4 | x4 | x4 | x4 | x4 | x4 | x4 | x4 | x4 | %14
 x4 | x4 | x4 | x4 | x4 | x4 | x4 | x4 | x4 | x4 | x4 | x4 | x4 | G,, z B,, z | =A,, z C, z | %29
 z B,, C,D, | G,, z B,, z | z2 C, z | F, z A,, z | z2 B,, z | x4 | x4 | x4 | x4 | x4 | x4 | x4 | %41
 x4 | x4 | x4 | x4 | x4 | x4 | x4 | C, z z C, | D,2 z2 | z E, F,G, | C,C B,=A, | x4 | x4 | x4 | %55
 x4 | x4 | x4 | x4 | x4 | x4 | x4 | x4 | x4 | x4 | x4 | x4 | x4 | x4 | x4 | x4 | x4 | x4 | x4 | %74
 x4 | G,, z B,, z | =A,, z C, z | z B,, C,D, | G,, z B,, z | z2 C, z | F, z A,, z | z2 B,, z | x4 | %83
 x4 | x4 | x4 | x4 | x4 | x4 | x4 | x4 | x4 | x4 | x4 | x4 | x4 | x4 | x4 | x4 | x4 | x4 | x4 | %102
 x4 | x4 | x4 | x4 | x4 | x4 | x4 | x4 | x4 | x4 | x4 | x4 | x4 | x4 | x4 | x4 | x4 | x4 | x4 | %121
 x4 | x4 | x4 | x4 | x4 | x4 | x4 | x4 | x4 | x4 | x4 | x4 | x4 | x4 | x4 | x4 | x4 | x4 | x4 | %140
 x4 | x4 | x4 | x4 | x4 | x4 | x4 | x4 | x4 | x4 | x4 | x4 | x4 | x4 | x4 | x4 | x4 | x4 | x4 | %159
 x4 | x4 | x4 | x4 | x4 | x4 | x4 | x4 | x4 | x4 | x4 | x4 | x4 | x4 | x4 | x4 | x4 | x4 | x4 | %178
 x4 | x4 | x4 | x4 | x4 | x4 | x4 | x4 | x4 | x4 | x4 | x4 | x4 | x4 |] %192
V:4
 x4 | x4 | x4 | x4 | z D G2- | G=A/G/ ^F/=E/D/C/ | %6
[I:staff +1] B,[I:staff -1]d[I:staff +1] =A,[I:staff -1]c- | c/B/=A/c/ B/A/G/F/ | EC z ^F | %9
 G z z =A | B<d B/_d/c/d/ | B<_d B/c/B/c/ | A<c A/c/B/c/ | A<B A/B/A/B/ | G z z2 | %15
 z E/F/ G/=A/=B/c/ | d z z2 | z D/E/ F/G/=A/=B/ | c z z2 | x4 | z c2 =B | z/ c/=B/c/ G/c/B/c/ | %22
 x4 | x4 | x4 | x4 | x4 | x4 | x4 | x4 | x4 | x4 | x4 | x4 |[I:staff +1] G,B,[I:staff -1] E2- | %35
 EF/E/ D/C/B,/A,/ | G,2 z C | F2 z2 | z[I:staff +1] E, F,G,- | G,G, C2- | %40
 C[I:staff -1]C/D/ E/F/G/A/ | B[I:staff +1]F, B,2- | B,[I:staff -1]B,/C/ _D/E/F/G/ | %43
 A[I:staff +1]G, F,=E, |[I:staff -1] F,/F/=E/G/ F/_E/D/C/ | B,2 z E | C4 | =B,4 | x4 | x4 | x4 | %51
 x4 | z D G2- | G=A/G/ ^F/=E/D/C/ |[I:staff +1] B,[I:staff -1]d[I:staff +1] =A,[I:staff -1]c- | %55
 c/B/=A/c/ B/A/G/F/ | EC z ^F | G z z =A | B<d B/_d/c/d/ | B<_d B/c/B/c/ | A<c A/c/B/c/ | %61
 A<B A/B/A/B/ | G z z2 | z E/F/ G/=A/=B/c/ | d z z2 | z D/E/ F/G/=A/=B/ | c z z2 | x4 | z c2 =B | %69
 z/ c/=B/c/ G/c/B/c/ | x4 | x4 | x4 | x4 | x4 | x4 | x4 | x4 | x4 | x4 | x4 | x4 | %82
[I:staff +1] G,B,[I:staff -1] E2- | EF/E/ D/C/B,/A,/ | G,2 z C | F2 z2 | z[I:staff +1] E, F,G,- | %87
 G,G, C2- | C[I:staff -1]C/D/ E/F/G/A/ | B[I:staff +1]F, B,2- | B,[I:staff -1]B,/C/ _D/E/F/G/ | %91
 A[I:staff +1]G, F,=E, |[I:staff -1] F,/F/=E/G/ F/_E/D/C/ | B,2 z E | C4 | =B,4 | %96
[I:staff +1] =B,2[I:staff -1] z[I:staff +1] D | G, C2 =B, | %98
[I:staff -1] z/[I:staff +1] G,/A,/G,/[I:staff -1] z/[I:staff +1] F,/G,/F,/ | E,[I:staff -1]G C2- | %100
 CB,/C/ D/=E/F/G/ | F z G z | c/_d/c/B/ A/G/F/E/ | D/C/D/E/ F/G/A- | A/c/B/A/ G/F/E/D/ | %105
 C/=B,/C/D/ E/F/G- | G/B/A/G/ F/E/D/C/ |[I:staff +1] =B,[I:staff -1] z z2 | z2 z d | G2 F2 | %110
 E2 D2 | Ee =Bd | d3 c/B/ | =A3 c- | c3 B/A/ | G2 z2 | z B =AG | ^F=A D2- | DC/D/ =E/^F/G/=A/ | %119
 B[I:staff +1]G,[I:staff -1] c[I:staff +1]=A, |[I:staff -1] d3 c | ^F B2 =A- | A^F G=A | %123
 D z z/ e/d/c/ | =Bd G2- | GF/G/ =A/=B/c/d/ | e/=B,/C/D/ E/F/G/A/ | B/A/G/A/ B/c/d/=e/ | %128
 f=e/f/- f2- | f=e/f/- f2- | fd/e/- e2- | ed/e/- e2- | ec/d/- d2- | dc/d/- d2 | cB AG | %135
 F2 z/ c/=B/d/ | G2 z e | c2 z2 | z D G2- | GA/G/ F/E/D/C/ | =B,2 z d | G=B cd- | d c2 =B | x4 | %144
[I:staff +1] =B,2[I:staff -1] z[I:staff +1] D | G, C2 =B, | %146
[I:staff -1] z/[I:staff +1] G,/A,/G,/[I:staff -1] z/[I:staff +1] F,/G,/F,/ | E,[I:staff -1]G C2- | %148
 CB,/C/ D/=E/F/G/ | F z G z | c/_d/c/B/ A/G/F/E/ | D/C/D/E/ F/G/A- | A/c/B/A/ G/F/E/D/ | %153
 C/=B,/C/D/ E/F/G- | G/B/A/G/ F/E/D/C/ |[I:staff +1] =B,[I:staff -1] z z2 | z2 z d | G2 F2 | %158
 E2 D2 | Ee =Bd | d3 c/B/ | =A3 c- | c3 B/A/ | G2 z2 | z B =AG | ^F=A D2- | DC/D/ =E/^F/G/=A/ | %167
 B[I:staff +1]G,[I:staff -1] c[I:staff +1]=A, |[I:staff -1] d3 c | ^F B2 =A- | A^F G=A | %171
 D z z/ e/d/c/ | =Bd G2- | GF/G/ =A/=B/c/d/ | e/=B,/C/D/ E/F/G/A/ | B/A/G/A/ B/c/d/=e/ | %176
 f=e/f/- f2- | f=e/f/- f2- | fd/e/- e2- | ed/e/- e2- | ec/d/- d2- | dc/d/- d2 | cB AG | %183
 F2 z/ c/=B/d/ | G2 z e | c2 z2 | z D G2- | GA/G/ F/E/D/C/ | =B,2 z d | G=B cd- | d c2 =B | x4 |] %192

